32x32/apps/calc.svg

<svg xmlns="http://www.w3.org/2000/svg" width="32" height="32" version="1">
 <path style="opacity:0.2" d="m 3.5,3 h 25 C 29.331,3 30,3.669 30,4.5 v 17.839157 l -2.517986,4.745632 c -0.38949,0.73407 -0.827994,1.011155 -1.5,1.5 L 22.661871,31 H 3.5 C 2.669,31 2,30.331 2,29.5 V 4.5 C 2,3.669 2.669,3 3.5,3 Z"/>
 <path style="fill:#666666" d="m 30,16 v 6.647482 l -1.541624,4.824769 c -0.252926,0.791574 -0.634728,1.53776 -1.448612,1.70555 L 23.021583,30 H 15 V 16 Z"/>
 <path style="fill:#8c8c8c" d="M 2,15 V 28.5 C 2,29.331 2.669,30 3.5,30 H 16 V 15 Z"/>
 <path style="fill:#a6a6a6" d="M 3.5,2 C 2.669,2 2,2.669 2,3.5 V 16 H 17 V 2 Z"/>
 <path style="fill:#595959" d="M 28.5,2 C 29.331,2 30,2.669 30,3.5 V 16 H 16 V 2 Z"/>
 <path style="opacity:0.2;fill:#f4f4f7" d="m3.5 2c-0.831 0-1.5 0.669-1.5 1.5v1c0-0.831 0.669-1.5 1.5-1.5h25c0.831 0 1.5 0.669 1.5 1.5v-1c0-0.831-0.669-1.5-1.5-1.5h-25z"/>
 <circle style="opacity:0.2" cx="23" cy="24" r="8"/>
 <circle style="fill:#07ce8e" cx="23" cy="23" r="8"/>
 <path style="opacity:0.2" d="m 9,7.000484 v 3 H 6 v 1 h 3 v 3 h 1 v -3 h 3 v -1 h -3 v -3 z m 11,3 v 1 h 6 v -1 z M 6.3535156,20.646968 5.6464844,21.354 8.2929688,24.000484 5.6464844,26.646968 6.3535156,27.354 9,24.707515 11.646484,27.354 12.353516,26.646968 9.7070312,24.000484 12.353516,21.354 11.646484,20.646968 9,23.293453 Z"/>
 <path style="fill:#f4f4f7" d="M 9 6 L 9 9 L 6 9 L 6 10 L 9 10 L 9 13 L 10 13 L 10 10 L 13 10 L 13 9 L 10 9 L 10 6 L 9 6 z M 20 9 L 20 10 L 26 10 L 26 9 L 20 9 z M 6.3535156 19.646484 L 5.6464844 20.353516 L 8.2929688 23 L 5.6464844 25.646484 L 6.3535156 26.353516 L 9 23.707031 L 11.646484 26.353516 L 12.353516 25.646484 L 9.7070312 23 L 12.353516 20.353516 L 11.646484 19.646484 L 9 22.292969 L 6.3535156 19.646484 z"/>
 <path style="fill:#f4f4f7" d="M 20,21 V 22 H 26 V 21 Z M 20,24 V 25 H 26 V 24 Z"/>
</svg>

<svg xmlns="http://www.w3.org/2000/svg" width="32" height="32" version="1"><path style="opacity:.2" d="M3.5 3h25c.831 0 1.5.669 1.5 1.5v17.84l-2.518 4.745c-.39.734-.828 1.01-1.5 1.5L22.662 31H3.5c-.831 0-1.5-.669-1.5-1.5v-25C2 3.669 2.669 3 3.5 3z"/><path style="fill:#666" d="M30 16v6.647l-1.542 4.825c-.253.792-.634 1.538-1.448 1.706L23.022 30H15V16z"/><path style="fill:#8c8c8c" d="M2 15v13.5c0 .831.669 1.5 1.5 1.5H16V15z"/><path style="fill:#a6a6a6" d="M3.5 2C2.669 2 2 2.669 2 3.5V16h15V2z"/><path style="fill:#595959" d="M28.5 2c.831 0 1.5.669 1.5 1.5V16H16V2z"/><path style="opacity:.2;fill:#f4f4f7" d="M3.5 2C2.669 2 2 2.669 2 3.5v1C2 3.669 2.669 3 3.5 3h25c.831 0 1.5.669 1.5 1.5v-1c0-.831-.669-1.5-1.5-1.5h-25z"/><circle style="opacity:.2" cx="23" cy="24" r="8"/><circle style="fill:#07ce8e" cx="23" cy="23" r="8"/><path style="opacity:.2" d="M9 7v3H6v1h3v3h1v-3h3v-1h-3V7zm11 3v1h6v-1zM6.354 20.647l-.708.707L8.293 24l-2.647 2.647.708.707L9 24.708l2.646 2.646.708-.707L9.707 24l2.647-2.646-.708-.707L9 23.293z"/><path style="fill:#f4f4f7" d="M9 6v3H6v1h3v3h1v-3h3V9h-3V6H9zm11 3v1h6V9h-6zM6.354 19.646l-.708.708L8.293 23l-2.647 2.646.708.708L9 23.707l2.646 2.647.708-.708L9.707 23l2.647-2.646-.708-.708L9 22.293l-2.646-2.647zM20 21v1h6v-1zm0 3v1h6v-1z"/></svg>
